X:384
T:Srnade du tambour
C:trad.
Z:S. Piron
M:6/8
L:1/8
Q:1/4=110
K:Bb
F|B2BB2B|B3Bzc|d2dd2d|d2dc2B|c3d3|c3czF|d3d2c|B3c3|
F3z2F|B2cd2e|d3c2B|d3c3|B4B2|B2z2zF||
W:
W:Si j'avais un tambour
W:Qui fut garni de roses
W:Et de fleurs d'amour,
W:J'irai tambouriner
W:Sur la fidlit
W:De ma bien aime.
W:
W:Bonsoir m'amie bonsoir
W:Vous faites la rebelle
W:Quand je viens vous voir
W:Pour la dernire fois
W:Je viens vous dire adieu
W:Belle je m'en vois.
W:
W:La fleur de l'olivier
W:Que vous avez aime
W:Charmante beaut
W:Et vos grands yeux si beaux
W:Que mon coeur aime tant
W:Les faut-il quitter.
W:
W:Rossignolet des bois
W:Va porter cette lettre
W:A ma bien aime
W:Quand tu la trouvera
W:Tu te rappelleras
W:Et tu lui diras.
W:
W:Si j'avais un tambour
W:Qui fut garni de roses
W:Et de fleurs d'amour,
W:J'irai tambouriner
W:Sur la fidlit
W:De ma bien aime.
